public/resources/icons/blog.svg

<?xml version="1.0" encoding="UTF-8" standalone="no"?>
<!-- Created with Vectornator (http://vectornator.io/) -->

<svg
   height="837.43781"
   stroke-miterlimit="10"
   style="clip-rule:evenodd;fill-rule:nonzero;stroke-linecap:round;stroke-linejoin:round"
   version="1.1"
   viewBox="0 0 943.12579 837.43781"
   width="943.12579"
   xml:space="preserve"
   id="svg7"
   sodipodi:docname="blog.svg"
   inkscape:version="1.2 (dc2aedaf03, 2022-05-15)"
   xmlns:inkscape="http://www.inkscape.org/namespaces/inkscape"
   xmlns:sodipodi="http://sodipodi.sourceforge.net/DTD/sodipodi-0.dtd"
   xmlns="http://www.w3.org/2000/svg"
   xmlns:svg="http://www.w3.org/2000/svg"
   xmlns:vectornator="http://vectornator.io"><sodipodi:namedview
   id="namedview9"
   pagecolor="#ffffff"
   bordercolor="#000000"
   borderopacity="0.25"
   inkscape:showpageshadow="2"
   inkscape:pageopacity="0.0"
   inkscape:pagecheckerboard="0"
   inkscape:deskcolor="#d1d1d1"
   showgrid="false"
   inkscape:zoom="1.0029297"
   inkscape:cx="473.61246"
   inkscape:cy="451.67673"
   inkscape:window-width="3440"
   inkscape:window-height="1369"
   inkscape:window-x="1432"
   inkscape:window-y="549"
   inkscape:window-maximized="1"
   inkscape:current-layer="svg7" />
<defs
   id="defs2" />
<g
   id="Layer-1"
   vectornator:layerName="Layer 1"
   transform="translate(-34.9062,-60.1562)">
<path
   d="m 867.645,60.1562 c -6.22,0 -11.948,0.4089 -17.132,1.1865 -5.183,0.7775 -10.743,2.0772 -16.705,3.8915 -5.961,1.8143 -11.93,4.2933 -17.891,7.4034 -5.962,3.1102 -11.233,6.48 -15.899,10.1085 -4.665,3.6285 -52.9,51.2869 -144.651,143.0369 -91.75,91.751 -141.646,142.297 -149.681,151.628 -8.035,9.33 -14.895,18.14 -20.597,26.433 -5.702,8.294 -11.262,17.633 -16.705,28 -5.442,10.368 -9.751,19.418 -12.861,27.194 -3.11,7.775 -6.191,17.114 -9.301,28 -3.111,10.885 -5.589,22.053 -7.404,33.457 -1.814,11.404 -2.825,22.693 -3.085,33.838 -0.259,11.144 0.103,18.654 1.139,22.542 1.037,3.888 3.395,8.028 7.024,12.434 3.629,4.406 7.889,7.776 12.814,10.108 4.924,2.333 12.555,3.512 22.922,3.512 10.367,0 21.776,-0.938 34.217,-2.752 12.44,-1.815 23.608,-4.005 33.457,-6.597 9.849,-2.592 14.88,-4.132 15.139,-4.651 0.26,-0.518 4.929,-2.347 14,-5.457 9.072,-3.111 20.89,-8.671 35.404,-16.705 14.514,-8.035 27.175,-16.363 38.061,-24.916 10.885,-8.553 64.32,-60.881 160.217,-157.037 95.897,-96.157 145.096,-146.053 147.688,-149.681 2.592,-3.629 5.479,-8.539 8.59,-14.76 3.11,-6.22 5.83,-13.898 8.163,-22.969 2.332,-9.072 3.464,-18.002 3.464,-26.814 0,-8.812 -0.241,-13.481 -0.759,-14 -0.519,-0.518 -1.169,-3.479 -1.946,-8.922 -0.778,-5.443 -2.318,-11.171 -4.651,-17.132 -2.333,-5.961 -5.053,-11.521 -8.163,-16.705 -3.11,-5.184 -6.48,-9.974 -10.108,-14.3798 -3.629,-4.4061 -9.718,-9.8459 -18.271,-16.3255 -8.553,-6.4795 -17.483,-11.5578 -26.814,-15.1864 -9.331,-3.6285 -16.72,-5.8191 -22.163,-6.5966 -5.443,-0.7776 -11.291,-1.1865 -17.512,-1.1865 z m 0,73.8918 c 3.629,0 6.878,0.409 9.729,1.186 2.851,0.778 5.812,2.03 8.922,3.844 3.11,1.815 5.951,4.173 8.543,7.024 2.591,2.851 4.83,6.582 6.644,11.247 1.814,4.666 2.705,9.094 2.705,13.241 0,4.147 -1.179,8.937 -3.512,14.38 -2.333,5.443 -50.93,55.58 -145.79,150.441 -94.861,94.86 -145.239,144.636 -151.2,149.301 -5.961,4.666 -14.409,10.105 -25.295,16.326 -10.886,6.22 -20.345,10.89 -28.38,14 -8.034,3.11 -16.073,5.589 -24.108,7.403 -4.017,0.907 -8.037,1.798 -12.054,2.705 0,-1.166 0,-2.345 0,-3.512 0,-2.332 0.938,-6.713 2.752,-13.193 1.815,-6.479 4.246,-13.628 7.356,-21.403 3.11,-7.776 6.889,-15.647 11.295,-23.682 4.406,-8.034 10.207,-16.844 17.465,-26.434 7.257,-9.589 56.021,-59.653 146.217,-150.108 90.195,-90.455 137.853,-137.872 143.037,-142.278 5.184,-4.406 9.853,-7.247 14,-8.542 4.147,-1.296 8.046,-1.946 11.674,-1.946 z m -497.261,26.434 c -108.079,0 -166.255,0.529 -174.549,1.566 -8.294,1.037 -17.753,3.107 -28.38,6.217 -10.626,3.11 -20.856,7.13 -30.705,12.054 -9.849,4.924 -18.658,10.244 -26.434,15.946 -7.775,5.702 -15.0438,11.912 -21.7826,18.651 -6.7387,6.738 -13.4783,14.898 -20.217,24.488 -6.7387,9.589 -12.1785,18.808 -16.3254,27.62 -4.1469,8.812 -7.5166,17.742 -10.1085,26.814 -2.5918,9.071 -4.4208,16.701 -5.4576,22.922 -1.0367,6.22 -1.5187,88.635 -1.5187,247.254 1e-4,158.619 1.5407,243.272 4.6509,253.898 3.1102,10.627 7.3708,20.206 12.8136,28.76 5.4428,8.553 11.9414,16.183 19.4576,22.922 7.5163,6.738 15.267,12.178 23.3017,16.325 8.035,4.147 15.712,7.155 22.969,8.97 7.258,1.814 16.188,2.705 26.814,2.705 10.627,0 19.677,-0.891 27.193,-2.705 7.517,-1.815 15.315,-4.823 23.349,-8.97 8.035,-4.147 22.405,-15.388 43.139,-33.79 20.735,-18.402 97.589,-27.741 230.55,-28 132.96,-0.259 204.904,-1.558 215.79,-3.891 10.885,-2.333 20.345,-5.053 28.379,-8.163 8.035,-3.11 16.315,-7.13 24.868,-12.054 8.553,-4.925 15.942,-9.835 22.163,-14.759 6.22,-4.925 13.08,-11.424 20.596,-19.458 7.517,-8.035 14.015,-16.194 19.458,-24.488 5.443,-8.294 10.594,-18.283 15.519,-29.946 4.924,-11.663 8.582,-23.434 10.915,-35.356 2.333,-11.922 3.512,-36.04 3.512,-72.325 0,-36.286 -0.288,-55.325 -0.807,-57.139 -0.518,-1.815 -1.698,-4.293 -3.512,-7.404 -1.814,-3.11 -4.896,-6.48 -9.302,-10.108 -4.406,-3.629 -8.545,-5.94 -12.434,-6.977 -3.887,-1.036 -7.425,-1.565 -10.535,-1.566 -3.11,0 -6.6,0.53 -10.488,1.566 -3.888,1.037 -6.849,2.169 -8.922,3.465 -2.074,1.296 -4.793,3.895 -8.163,7.783 -3.369,3.888 -5.728,7.666 -7.024,11.295 -1.296,3.628 -1.946,21.248 -1.945,52.868 0,31.62 -0.362,50.539 -1.139,56.759 -0.778,6.22 -2.077,12.31 -3.892,18.271 -1.814,5.961 -4.293,11.931 -7.403,17.892 -3.111,5.961 -6.962,11.93 -11.628,17.891 -4.665,5.961 -9.623,11.113 -14.806,15.519 -5.184,4.406 -10.865,8.426 -17.085,12.054 -6.22,3.629 -11.781,6.349 -16.705,8.163 -4.925,1.814 -11.062,3.402 -18.319,4.698 -7.257,1.296 -78.383,1.899 -213.417,1.898 -135.034,0 -205.028,0.939 -209.952,2.753 -4.925,1.814 -18.404,12.694 -40.434,32.651 -22.031,19.957 -34.692,30.957 -38.061,33.03 -3.37,2.074 -7.028,3.494 -10.916,4.272 -3.887,0.777 -7.786,1.066 -11.674,0.806 -3.888,-0.259 -7.378,-1.029 -10.488,-2.325 -3.11,-1.296 -6.48,-3.534 -10.109,-6.644 -3.628,-3.11 -6.589,-7.25 -8.922,-12.434 -2.332,-5.184 -3.512,-84.878 -3.512,-239.092 0,-154.213 1.18,-235.978 3.512,-245.308 2.333,-9.331 5.703,-18.02 10.109,-26.054 4.406,-8.035 9.725,-15.425 15.945,-22.163 6.221,-6.739 11.902,-11.938 17.085,-15.566 5.184,-3.629 10.503,-6.71 15.946,-9.302 5.443,-2.592 11.412,-4.782 17.891,-6.597 6.48,-1.814 11.92,-2.993 16.326,-3.511 4.406,-0.519 60.392,-0.76 167.953,-0.76 107.56,0 163.137,-0.65 166.766,-1.946 3.628,-1.295 7.118,-3.245 10.488,-5.837 3.369,-2.592 6.257,-5.841 8.59,-9.729 2.332,-3.887 3.873,-7.257 4.65,-10.108 0.778,-2.851 0.899,-6.991 0.38,-12.434 -0.518,-5.443 -1.698,-9.992 -3.512,-13.62 -1.814,-3.629 -4.366,-6.999 -7.735,-10.109 -3.37,-3.11 -7.678,-5.589 -12.861,-7.403 -5.184,-1.814 -61.82,-2.705 -169.899,-2.705 z m -96.007,221.579 c -40.95,0 -63.118,0.53 -66.488,1.567 -3.369,1.036 -6.618,2.624 -9.728,4.698 -3.111,2.073 -5.951,4.793 -8.543,8.163 -2.592,3.369 -4.541,6.98 -5.837,10.867 -1.296,3.888 -1.946,7.667 -1.946,11.295 0,3.629 0.938,7.889 2.753,12.814 1.814,4.924 4.125,8.944 6.976,12.054 2.851,3.11 6.63,5.83 11.295,8.163 4.665,2.332 28.494,3.511 71.518,3.512 43.025,0 66.974,-1.3 71.899,-3.892 4.924,-2.592 8.583,-5.191 10.915,-7.783 2.333,-2.592 4.162,-5.191 5.458,-7.783 1.296,-2.592 2.187,-7.261 2.705,-14 0.518,-6.739 0.23,-11.649 -0.807,-14.759 -1.037,-3.111 -3.348,-6.889 -6.976,-11.295 -3.629,-4.406 -7.119,-7.488 -10.488,-9.302 -3.37,-1.814 -6.09,-2.993 -8.163,-3.512 -2.074,-0.518 -23.592,-0.806 -64.543,-0.807 z m 0,146.977 c -38.877,0 -60.636,0.65 -65.301,1.945 -4.665,1.296 -8.156,2.717 -10.488,4.272 -2.333,1.555 -4.932,4.034 -7.783,7.403 -2.851,3.369 -5.089,7.269 -6.644,11.675 -1.556,4.406 -2.326,8.378 -2.326,12.006 0,3.629 0.65,7.408 1.946,11.295 1.296,3.888 3.486,7.787 6.596,11.675 3.111,3.888 6.48,6.848 10.109,8.922 3.629,2.073 6.228,3.373 7.783,3.891 1.555,0.519 23.482,0.807 65.729,0.807 42.247,0 65.064,-0.65 68.434,-1.945 3.369,-1.296 6.33,-2.885 8.922,-4.699 2.592,-1.814 5.432,-5.063 8.542,-9.729 3.11,-4.665 4.939,-7.867 5.458,-9.681 0.518,-1.814 0.518,-6.243 0,-13.241 -0.519,-6.998 -2.348,-12.799 -5.458,-17.464 -3.11,-4.665 -7.13,-8.444 -12.054,-11.295 -4.925,-2.851 -8.656,-4.56 -11.248,-5.078 -2.591,-0.518 -23.339,-0.759 -62.217,-0.759 z"
   fill="#000000"
   fill-rule="nonzero"
   opacity="1"
   stroke="none"
   id="path4" />
</g>
</svg>

<?xml version="1.0" encoding="UTF-8" standalone="no"?>
<!DOCTYPE svg PUBLIC "-//W3C//DTD SVG 1.1//EN" "http://www.w3.org/Graphics/SVG/1.1/DTD/svg11.dtd">
<!-- Created with Vectornator (http://vectornator.io/) -->
<svg height="100%" stroke-miterlimit="10" style="fill-rule:nonzero;clip-rule:evenodd;stroke-linecap:round;stroke-linejoin:round;" version="1.1" viewBox="0 0 1024 1024" width="100%" xml:space="preserve" xmlns="http://www.w3.org/2000/svg" xmlns:xlink="http://www.w3.org/1999/xlink">
<defs/>
<g id="Layer-1">
<path d="M867.645 60.1562C861.425 60.1562 855.697 60.5651 850.513 61.3427C845.33 62.1202 839.77 63.4199 833.808 65.2342C827.847 67.0485 821.878 69.5275 815.917 72.6376C809.955 75.7478 804.684 79.1176 800.018 82.7461C795.353 86.3746 747.118 134.033 655.367 225.783C563.617 317.534 513.721 368.08 505.686 377.411C497.651 386.741 490.791 395.551 485.089 403.844C479.387 412.138 473.827 421.477 468.384 431.844C462.942 442.212 458.633 451.262 455.523 459.038C452.413 466.813 449.332 476.152 446.222 487.038C443.111 497.923 440.633 509.091 438.818 520.495C437.004 531.899 435.993 543.188 435.733 554.333C435.474 565.477 435.836 572.987 436.872 576.875C437.909 580.763 440.267 584.903 443.896 589.309C447.525 593.715 451.785 597.085 456.71 599.417C461.634 601.75 469.265 602.929 479.632 602.929C489.999 602.929 501.408 601.991 513.849 600.177C526.289 598.362 537.457 596.172 547.306 593.58C557.155 590.988 562.186 589.448 562.445 588.929C562.705 588.411 567.374 586.582 576.445 583.472C585.517 580.361 597.335 574.801 611.849 566.767C626.363 558.732 639.024 550.404 649.91 541.851C660.795 533.298 714.23 480.97 810.127 384.814C906.024 288.657 955.223 238.761 957.815 235.133C960.407 231.504 963.294 226.594 966.405 220.373C969.515 214.153 972.235 206.475 974.568 197.404C976.9 188.332 978.032 179.402 978.032 170.59C978.032 161.778 977.791 157.109 977.273 156.59C976.754 156.072 976.104 153.111 975.327 147.668C974.549 142.225 973.009 136.497 970.676 130.536C968.343 124.575 965.623 119.015 962.513 113.831C959.403 108.647 956.033 103.857 952.405 99.4512C948.776 95.0451 942.687 89.6053 934.134 83.1257C925.581 76.6462 916.651 71.5679 907.32 67.9393C897.989 64.3108 890.6 62.1202 885.157 61.3427C879.714 60.5651 873.866 60.1562 867.645 60.1562ZM867.645 134.048C871.274 134.048 874.523 134.457 877.374 135.234C880.225 136.012 883.186 137.264 886.296 139.078C889.406 140.893 892.247 143.251 894.839 146.102C897.43 148.953 899.669 152.684 901.483 157.349C903.297 162.015 904.188 166.443 904.188 170.59C904.188 174.737 903.009 179.527 900.676 184.97C898.343 190.413 849.746 240.55 754.886 335.411C660.025 430.271 609.647 480.047 603.686 484.712C597.725 489.378 589.277 494.817 578.391 501.038C567.505 507.258 558.046 511.928 550.011 515.038C541.977 518.148 533.938 520.627 525.903 522.441C521.886 523.348 517.866 524.239 513.849 525.146C513.849 523.98 513.849 522.801 513.849 521.634C513.849 519.302 514.787 514.921 516.601 508.441C518.416 501.962 520.847 494.813 523.957 487.038C527.067 479.262 530.846 471.391 535.252 463.356C539.658 455.322 545.459 446.512 552.717 436.922C559.974 427.333 608.738 377.269 698.934 286.814C789.129 196.359 836.787 148.942 841.971 144.536C847.155 140.13 851.824 137.289 855.971 135.994C860.118 134.698 864.017 134.048 867.645 134.048ZM370.384 160.482C262.305 160.482 204.129 161.011 195.835 162.048C187.541 163.085 178.082 165.155 167.455 168.265C156.829 171.375 146.599 175.395 136.75 180.319C126.901 185.243 118.092 190.563 110.316 196.265C102.541 201.967 95.2722 208.177 88.5334 214.916C81.7947 221.654 75.0551 229.814 68.3164 239.404C61.5777 248.993 56.1379 258.212 51.991 267.024C47.8441 275.836 44.4744 284.766 41.8825 293.838C39.2907 302.909 37.4617 310.539 36.4249 316.76C35.3882 322.98 34.9062 405.395 34.9062 564.014C34.9063 722.633 36.4469 807.286 39.5571 817.912C42.6673 828.539 46.9279 838.118 52.3707 846.672C57.8135 855.225 64.3121 862.855 71.8283 869.594C79.3446 876.332 87.0953 881.772 95.13 885.919C103.165 890.066 110.842 893.074 118.099 894.889C125.357 896.703 134.287 897.594 144.913 897.594C155.54 897.594 164.59 896.703 172.106 894.889C179.623 893.074 187.421 890.066 195.455 885.919C203.49 881.772 217.86 870.531 238.594 852.129C259.329 833.727 336.183 824.388 469.144 824.129C602.104 823.87 674.048 822.571 684.934 820.238C695.819 817.905 705.279 815.185 713.313 812.075C721.348 808.965 729.628 804.945 738.181 800.021C746.734 795.096 754.123 790.186 760.344 785.262C766.564 780.337 773.424 773.838 780.94 765.804C788.457 757.769 794.955 749.61 800.398 741.316C805.841 733.022 810.992 723.033 815.917 711.37C820.841 699.707 824.499 687.936 826.832 676.014C829.165 664.092 830.344 639.974 830.344 603.689C830.344 567.403 830.056 548.364 829.537 546.55C829.019 544.735 827.839 542.257 826.025 539.146C824.211 536.036 821.129 532.666 816.723 529.038C812.317 525.409 808.178 523.098 804.289 522.061C800.402 521.025 796.864 520.496 793.754 520.495C790.644 520.495 787.154 521.025 783.266 522.061C779.378 523.098 776.417 524.23 774.344 525.526C772.27 526.822 769.551 529.421 766.181 533.309C762.812 537.197 760.453 540.975 759.157 544.604C757.861 548.232 757.211 565.852 757.212 597.472C757.212 629.092 756.85 648.011 756.073 654.231C755.295 660.451 753.996 666.541 752.181 672.502C750.367 678.463 747.888 684.433 744.778 690.394C741.667 696.355 737.816 702.324 733.15 708.285C728.485 714.246 723.527 719.398 718.344 723.804C713.16 728.21 707.479 732.23 701.259 735.858C695.039 739.487 689.478 742.207 684.554 744.021C679.629 745.835 673.492 747.423 666.235 748.719C658.978 750.015 587.852 750.618 452.818 750.617C317.784 750.617 247.79 751.556 242.866 753.37C237.941 755.184 224.462 766.064 202.432 786.021C180.401 805.978 167.74 816.978 164.371 819.051C161.001 821.125 157.343 822.545 153.455 823.323C149.568 824.1 145.669 824.389 141.781 824.129C137.893 823.87 134.403 823.1 131.293 821.804C128.183 820.508 124.813 818.27 121.184 815.16C117.556 812.05 114.595 807.91 112.262 802.726C109.93 797.542 108.75 717.848 108.75 563.634C108.75 409.421 109.93 327.656 112.262 318.326C114.595 308.995 117.965 300.306 122.371 292.272C126.777 284.237 132.096 276.847 138.316 270.109C144.537 263.37 150.218 258.171 155.401 254.543C160.585 250.914 165.904 247.833 171.347 245.241C176.79 242.649 182.759 240.459 189.238 238.644C195.718 236.83 201.158 235.651 205.564 235.133C209.97 234.614 265.956 234.373 373.517 234.373C481.077 234.373 536.654 233.723 540.283 232.427C543.911 231.132 547.401 229.182 550.771 226.59C554.14 223.998 557.028 220.749 559.361 216.861C561.693 212.974 563.234 209.604 564.011 206.753C564.789 203.902 564.91 199.762 564.391 194.319C563.873 188.876 562.693 184.327 560.879 180.699C559.065 177.07 556.513 173.7 553.144 170.59C549.774 167.48 545.466 165.001 540.283 163.187C535.099 161.373 478.463 160.482 370.384 160.482ZM274.377 382.061C233.427 382.061 211.259 382.591 207.889 383.628C204.52 384.664 201.271 386.252 198.161 388.326C195.05 390.399 192.21 393.119 189.618 396.489C187.026 399.858 185.077 403.469 183.781 407.356C182.485 411.244 181.835 415.023 181.835 418.651C181.835 422.28 182.773 426.54 184.588 431.465C186.402 436.389 188.713 440.409 191.564 443.519C194.415 446.629 198.194 449.349 202.859 451.682C207.524 454.014 231.353 455.193 274.377 455.194C317.402 455.194 341.351 453.894 346.276 451.302C351.2 448.71 354.859 446.111 357.191 443.519C359.524 440.927 361.353 438.328 362.649 435.736C363.945 433.144 364.836 428.475 365.354 421.736C365.872 414.997 365.584 410.087 364.547 406.977C363.51 403.866 361.199 400.088 357.571 395.682C353.942 391.276 350.452 388.194 347.083 386.38C343.713 384.566 340.993 383.387 338.92 382.868C336.846 382.35 315.328 382.062 274.377 382.061ZM274.377 529.038C235.5 529.038 213.741 529.688 209.076 530.983C204.411 532.279 200.92 533.7 198.588 535.255C196.255 536.81 193.656 539.289 190.805 542.658C187.954 546.027 185.716 549.927 184.161 554.333C182.605 558.739 181.835 562.711 181.835 566.339C181.835 569.968 182.485 573.747 183.781 577.634C185.077 581.522 187.267 585.421 190.377 589.309C193.488 593.197 196.857 596.157 200.486 598.231C204.115 600.304 206.714 601.604 208.269 602.122C209.824 602.641 231.751 602.929 273.998 602.929C316.245 602.929 339.062 602.279 342.432 600.984C345.801 599.688 348.762 598.099 351.354 596.285C353.946 594.471 356.786 591.222 359.896 586.556C363.006 581.891 364.835 578.689 365.354 576.875C365.872 575.061 365.872 570.632 365.354 563.634C364.835 556.636 363.006 550.835 359.896 546.17C356.786 541.505 352.766 537.726 347.842 534.875C342.917 532.024 339.186 530.315 336.594 529.797C334.003 529.279 313.255 529.038 274.377 529.038Z" fill="#000000" fill-rule="nonzero" opacity="1" stroke="none"/>
</g>
</svg>
